X: 43532
T: You Broke My Cup And My Saucer
R: polka
M: 2/4
K: Gmajor
|:A|Bd e>f|g2 Rfe|{g}fe d>e|fd B>A|Bd ef|g2 Rfe|fa gf|e2 e:|
z|Bd BA|GA B>c|BA D>A|BA D2|Bd BA|GA Bd|eg fd|e2 e z|
Bd BA|GA B>c|BA D>A|BA D2|Bd BA|GA B>c|BA D>A|G2 G||

